X: 126
T: Qu man di
%%abc-version 2.0
%%abcx-abcm2ps-target-version 5.9.1 (29 Sep 2008)
%%abc-creator hum2abc beta
%%abcx-conversion-date 2013/10/02 07:44:27
%%abc-edited-by Helmut Schaffrath
%%humdrum-veritas 2573912852
%%humdrum-veritas-data 86504124
%%continueall 1
%%barnumbers 0
L: 1/8
M: 4/4
K: Bb
f f [I:setbarnb 1]| 
e'6f' e' | 
d'6g a | 
b6b a/ g/ | 
g6z2 | 
g/ g a/ b c' b a/ b/g2 | 
a/ g a< g f/f4 | 
c'3d'/ e'/ d' e' d' g'- | 
g'3f'/ g'/f'3e'/ d'/ | 
f'8 | 
e'/ d' d'/ c'/> d'/ c'/ b/b4 | 
g/ g a/ b c' b> ag2 | 
a/ g a< g f/f4 | 
b2>c'2d'3f' | 
e'2>d'2c'4 | 
z/ c' d'/ e' f' e'> d'c'2 | 
d'/ c' d'/ c' bb2f f | 
e'6f' e' | 
d'6g a | 
b6b a/ g/ | 
g6z2 | 
g/ g a/ b c' b a/ b/g2 | 
a/ g a< g f/f4 | 
c'3d'/ e'/ d' e' d' g'- | 
g'3f'/ g'/f'3e'/ d'/ | 
f'8 | 
e'/ d' d'/ c'/> d'/ c'/ b/b4 | 
g/ g a/ b c' b> ag2 | 
a/ g a< g f/f4 | 
b2>c'2d'3f' | 
e'2>d'2c'4 | 
z/ c' d'/ e' f' e'> d'c'2 | 
d'/ c' d'/ c' bb4 | 
d'2>e'2f'4 | 
e'2>d'2c'4 | 
z/ c' d'/ e' f' z/ e' d'/c'2 | 
d'/ c' d'< c' b/b4- | 
b8 |]  



